Costumes/hat_beanie.svg

<?xml version="1.0" encoding="UTF-8" standalone="no"?>
<svg
   version="1.1"
   width="68.456055"
   height="70.280304"
   viewBox="-1 -1 68.456055 70.280304"
   id="svg5"
   sodipodi:docname="hat_beanie.svg"
   xmlns:inkscape="http://www.inkscape.org/namespaces/inkscape"
   xmlns:sodipodi="http://sodipodi.sourceforge.net/DTD/sodipodi-0.dtd"
   xmlns="http://www.w3.org/2000/svg"
   xmlns:svg="http://www.w3.org/2000/svg">
  <defs
     id="defs9" />
  <sodipodi:namedview
     id="namedview7"
     pagecolor="#ffffff"
     bordercolor="#000000"
     borderopacity="0.25"
     inkscape:showpageshadow="2"
     inkscape:pageopacity="0.0"
     inkscape:pagecheckerboard="0"
     inkscape:deskcolor="#d1d1d1" />
  <!-- Exported by Scratch - http://scratch.mit.edu/ -->
  <g
     id="ID0.525196427013725"
     transform="matrix(0.94999999,0,0,0.94999999,-1.8424369,-1.3990155)">
    <path
       id="ID0.7995731518603861"
       fill="#006666"
       stroke="#000000"
       stroke-width="1"
       stroke-linecap="round"
       d="m 241.4,23.1 c 11.763,1.944 23.686,8.421 32.1,17.3 4.983,5.228 5.949,14.069 4.7,21.45 -0.985,5.779 -6.064,10.417 -11.25,13.55 -2.259,1.362 -5.916,-0.46 -7.45,-2.7 -3.485,-5.09 -2.034,-12.712 -5.8,-17.6 -4.422,-5.704 -11.775,-8.179 -17.35,-12.65 -2.612,-2.091 -3.592,-6.149 -6.65,-7.4 -2.572,-1.033 -6.089,1.867 -8,0.7 -1.129,-0.438 0.437,-2.909 1.92,-3.91 5.483,-3.664 11.271,-9.813 17.78,-8.74 z"
       transform="matrix(-1.1841534,0,0,1.199947,331.5,-26.55)" />
    <path
       id="ID0.2665194901637733"
       fill="#006666"
       stroke="#000000"
       stroke-width="1"
       stroke-linecap="round"
       d="m 234.2,28.7 c 7.45,1.207 14.641,2.976 21.2,6.1 6.847,2.94 13.199,7.103 18.6,11.9 2.998,2.669 6.013,5.844 6.95,9.95 0.95,4.614 1.026,10.179 -1.65,14.6 -1.64,2.668 -6.832,3.309 -9.3,1.9 -1.83,-1.069 1.77,-5.203 1.05,-7.35 -1.407,-4.109 -3.69,-7.959 -6.55,-11.3 -3.105,-3.632 -6.441,-7.493 -10.8,-9.45 -6.103,-2.74 -13.207,-2.878 -19.85,-4.05 -4.386,-0.771 -9.272,-1.264 -13.9,-1.9 -1.991,-0.272 -5.234,0.382 -6.5,-0.95 -0.759,-0.812 1.292,-2.414 2.15,-3.45 1.884,-2.177 3.354,-4.986 6,-5.85 4.196,-1.39 8.472,-0.837 12.6,-0.15 z"
       transform="matrix(-0.98184425,0.38544548,0.38544548,0.98184425,267.25,-104.7)" />
  </g>
</svg>

<svg version="1.1" width="75" height="76" viewBox="-1 -1 75 76" xmlns="http://www.w3.org/2000/svg" xmlns:xlink="http://www.w3.org/1999/xlink">
  <!-- Exported by Scratch - http://scratch.mit.edu/ -->
  <g id="ID0.525196427013725" transform="matrix(0.949999988079071, 0, 0, 0.949999988079071, -0.8, -0.05)">
    <path id="ID0.7995731518603861" fill="#006666" stroke="#000000" stroke-width="1" stroke-linecap="round" d="M 241.400 23.100 C 253.163 25.044 265.086 31.521 273.500 40.400 C 278.483 45.628 279.449 54.469 278.200 61.850 C 277.215 67.629 272.136 72.267 266.950 75.400 C 264.691 76.762 261.034 74.940 259.500 72.700 C 256.015 67.610 257.466 59.988 253.700 55.100 C 249.278 49.396 241.925 46.921 236.350 42.450 C 233.738 40.359 232.758 36.301 229.700 35.050 C 227.128 34.017 223.611 36.917 221.700 35.750 C 220.571 35.312 222.137 32.841 223.620 31.840 C 229.103 28.176 234.891 22.027 241.400 23.100 Z " transform="matrix(-1.184153437614441, 0, 0, 1.1999469995498657, 331.5, -26.55)"/>
    <path id="ID0.2665194901637733" fill="#006666" stroke="#000000" stroke-width="1" stroke-linecap="round" d="M 234.200 28.700 C 241.650 29.907 248.841 31.676 255.400 34.800 C 262.247 37.740 268.599 41.903 274 46.700 C 276.998 49.369 280.013 52.544 280.950 56.650 C 281.900 61.264 281.976 66.829 279.300 71.250 C 277.660 73.918 272.468 74.559 270 73.150 C 268.170 72.081 271.770 67.947 271.050 65.800 C 269.643 61.691 267.360 57.841 264.500 54.500 C 261.395 50.868 258.059 47.007 253.700 45.050 C 247.597 42.310 240.493 42.172 233.850 41 C 229.464 40.229 224.578 39.736 219.950 39.100 C 217.959 38.828 214.716 39.482 213.450 38.150 C 212.691 37.338 214.742 35.736 215.600 34.700 C 217.484 32.523 218.954 29.714 221.600 28.850 C 225.796 27.460 230.072 28.013 234.200 28.700 Z " transform="matrix(-0.9818442463874817, 0.3854454755783081, 0.3854454755783081, 0.9818442463874817, 267.25, -104.7)"/>
  </g>
</svg>
